X: 34597
T: River Field
R: waltz
M: 3/4
K: Gmajor
|:G3B B/A/G|A4 BA|G2 g3 f|ef g3a|b2 g2 d2|
a2 f2 d2|1 c2 B2 c2|A4 BA:|2 c2 B2 A2|G4 ga||
b3b c'b|a4 ba|gf e3d|dB G2 ga|
b2 c'2 b2|a2 g2 f2|e2 f2 g2|a4 ga|
b3b c'b|a4 ba|gf e3d|ef g3a|
b2 g2 d2|a2 f2 d2|c2 B2 A2|G4 BA||

